icons/lines/receipt-square.svg

<svg xmlns="http://www.w3.org/2000/svg" width="24" height="24" viewBox="0 0 24 24" fill="none" stroke="currentColor" stroke-width="2" stroke-linecap="round" stroke-linejoin="round" >
  <path d="M9 22H15C20 22 22 20 22 15V9C22 4 20 2 15 2H9C4 2 2 4 2 9V15C2 20 4 22 9 22Z"/>
  <path d="M8.90024 16.53C9.38024 16.01 10.1203 16.05 10.5403 16.62L11.1403 17.42C11.6103 18.05 12.3902 18.05 12.8602 17.42L13.4503 16.63C13.8703 16.07 14.6102 16.03 15.0902 16.54C16.1402 17.66 16.9902 17.29 16.9902 15.72V9.09C16.9902 6.72 16.4302 6.13 14.2102 6.13H9.77023C7.55023 6.13 6.99023 6.72 6.99023 9.09V15.72C7.00023 17.27 7.86024 17.64 8.90024 16.53Z"/>
  </svg>

<svg xmlns="http://www.w3.org/2000/svg" width="24" height="24" viewBox="0 0 24 24" fill="none" stroke="currentColor" stroke-width="2" stroke-linecap="round" stroke-linejoin="round">
  <path d="M15 22c5 0 7-2 7-7V9c0-5-2-7-7-7H9C4 2 2 4 2 9v6c0 5 2 7 7 7z" />
  <path d="M8.9 16.53c.48-.52 1.22-.48 1.64.09l.6.8c.47.63 1.25.63 1.72 0l.59-.79c.42-.56 1.16-.6 1.64-.09 1.05 1.12 1.9.75 1.9-.82V9.09c0-2.37-.56-2.96-2.78-2.96H9.77c-2.22 0-2.78.59-2.78 2.96v6.63c.01 1.55.87 1.92 1.91.81" />
</svg>
